X:438
T:Lady Mary Ramsay
R:Strathspey
N:"Original key."
B:The Athole Collection
M:C
L:1/8
K:D
A,|D3B A<F F>B|A>FB>G A<FF<d|D3B A<F F>A|d>BA>F E/E/E E:|
g|f<d d>f e<c c>e|dB A<F F>e|f<d d>f e>dc>A|d>BA>F E/E/E Ee|
f>dd>f ecce|dB A<F F>A|d>fc>e B>dA>F|d>BA>F E/E/E E||
